X:33
T:Geese In The Bog, The
S:The Session: https://thesession.org/tunes/43#setting55355
C:Traditional
R:jig
K:Ador
M:6/8
L:1/8
Q:1/4=113
B |: "C"cEE "G"GEE| "C"cEE GAB| cEE "G"GED| "Am"EAA A2B| 
| "C"cEE "G"GEE| "C"cEE GAB| cBA "G"GED|"Am" EAA A2 B:|
|: "C"cde "G"ged| "Am"eaf ged| "C"cde "G"ged| "Am"eag ~a3| 
| "C"cde "G"ged| "Am"eaf ged| "C"cBA "G"GED|1 "Am"EAA A2 B :|2 "Am"EAA A3 |]

